assets/icons/slash-eye.svg

<svg width="20" height="16" viewBox="0 0 20 16" fill="none" xmlns="http://www.w3.org/2000/svg">
<path d="M16.8749 15.5C16.7928 15.5001 16.7115 15.484 16.6357 15.4526C16.5599 15.4211 16.491 15.375 16.4331 15.3168L2.68312 1.5668C2.57086 1.44863 2.5092 1.29129 2.51128 1.12831C2.51337 0.965338 2.57904 0.809624 2.69429 0.694373C2.80954 0.579122 2.96525 0.513453 3.12823 0.511366C3.29121 0.50928 3.44855 0.570941 3.56671 0.683203L17.3167 14.4332C17.4041 14.5206 17.4635 14.6319 17.4876 14.7531C17.5117 14.8743 17.4993 15 17.4521 15.1141C17.4048 15.2283 17.3247 15.3259 17.222 15.3946C17.1193 15.4633 16.9985 15.4999 16.8749 15.5Z" fill="#B791F5"/>
<path d="M9.68743 10.3379L7.66439 8.31484C7.65279 8.30335 7.63789 8.29577 7.62177 8.29318C7.60565 8.29059 7.58913 8.29311 7.57452 8.3004C7.55991 8.30768 7.54795 8.31936 7.54031 8.33379C7.53268 8.34822 7.52976 8.36468 7.53196 8.38086C7.61364 8.90571 7.86008 9.39101 8.23568 9.7666C8.61127 10.1422 9.09656 10.3886 9.62142 10.4703C9.63759 10.4725 9.65405 10.4696 9.66849 10.462C9.68292 10.4543 9.69459 10.4424 9.70188 10.4278C9.70916 10.4131 9.71169 10.3966 9.7091 10.3805C9.7065 10.3644 9.69893 10.3495 9.68743 10.3379Z" fill="#B791F5"/>
<path d="M10.3124 5.66211L12.3386 7.6875C12.3501 7.69916 12.3651 7.70687 12.3813 7.70956C12.3975 7.71224 12.4141 7.70975 12.4288 7.70244C12.4435 7.69513 12.4555 7.68338 12.4632 7.66884C12.4708 7.65431 12.4737 7.63774 12.4714 7.62148C12.3899 7.09592 12.1433 6.60992 11.7672 6.23384C11.3912 5.85777 10.9052 5.61115 10.3796 5.52969C10.3633 5.52718 10.3467 5.52987 10.332 5.53739C10.3174 5.54491 10.3055 5.55686 10.298 5.57155C10.2906 5.58624 10.2879 5.6029 10.2905 5.61916C10.2931 5.63543 10.3008 5.65046 10.3124 5.66211Z" fill="#B791F5"/>
<path d="M19.1798 8.67812C19.3091 8.47514 19.3775 8.23932 19.3768 7.99865C19.3761 7.75797 19.3064 7.52255 19.1759 7.32031C18.1423 5.72188 16.8013 4.36406 15.2981 3.39336C13.6329 2.31836 11.797 1.75 9.9876 1.75C9.03374 1.75131 8.08636 1.90683 7.18213 2.21055C7.15682 2.21896 7.13409 2.23372 7.1161 2.25341C7.09811 2.2731 7.08546 2.29706 7.07935 2.32302C7.07324 2.34899 7.07388 2.37608 7.0812 2.40172C7.08853 2.42737 7.1023 2.45071 7.1212 2.46953L8.96651 4.31484C8.98568 4.33405 9.00952 4.34793 9.03568 4.35512C9.06185 4.36231 9.08943 4.36257 9.11573 4.35586C9.74122 4.20343 10.3954 4.2146 11.0153 4.38829C11.6353 4.56199 12.2 4.89235 12.6553 5.34758C13.1105 5.80281 13.4408 6.36758 13.6145 6.9875C13.7882 7.60742 13.7994 8.26162 13.647 8.88711C13.6403 8.91334 13.6406 8.94085 13.6478 8.96694C13.655 8.99303 13.6689 9.01681 13.688 9.03594L16.3423 11.6922C16.3699 11.7199 16.4069 11.7362 16.4459 11.7379C16.485 11.7396 16.5233 11.7267 16.5532 11.7016C17.5749 10.8307 18.4603 9.81155 19.1798 8.67812Z" fill="#B791F5"/>
<path d="M10 11.75C9.43232 11.75 8.87204 11.6212 8.36141 11.3732C7.85078 11.1251 7.40312 10.7644 7.05219 10.3182C6.70125 9.87201 6.4562 9.35195 6.33552 8.79726C6.21483 8.24256 6.22165 7.66769 6.35547 7.11602C6.3621 7.08978 6.36181 7.06227 6.35462 7.03618C6.34743 7.01009 6.33359 6.98632 6.31445 6.96719L3.70351 4.35508C3.67583 4.32736 3.63874 4.31106 3.5996 4.30939C3.56046 4.30773 3.52212 4.32083 3.49219 4.34609C2.53945 5.15898 1.65625 6.14805 0.848826 7.30391C0.707492 7.50676 0.629654 7.74705 0.625202 7.99425C0.620751 8.24144 0.689887 8.48438 0.823826 8.69219C1.85547 10.3066 3.18281 11.6664 4.66289 12.6238C6.33047 13.7031 8.12187 14.25 9.9875 14.25C10.951 14.2474 11.9082 14.0952 12.825 13.7988C12.8505 13.7907 12.8735 13.7761 12.8918 13.7565C12.9101 13.7368 12.923 13.7129 12.9293 13.6868C12.9356 13.6608 12.9351 13.6335 12.9279 13.6077C12.9206 13.5819 12.9069 13.5584 12.8879 13.5395L11.0336 11.6855C11.0145 11.6664 10.9907 11.6526 10.9646 11.6454C10.9385 11.6382 10.911 11.6379 10.8848 11.6445C10.5951 11.7147 10.2981 11.7501 10 11.75Z" fill="#B791F5"/>
</svg>

<svg width="20" height="16" viewBox="0 0 20 16" fill="none" xmlns="http://www.w3.org/2000/svg"><path d="M16.875 15.5a.623.623 0 01-.442-.183L2.683 1.567a.625.625 0 01.884-.884l13.75 13.75a.624.624 0 01-.442 1.067zM9.687 10.338L7.664 8.315a.078.078 0 00-.132.066 2.504 2.504 0 002.09 2.09.078.078 0 00.087-.09.078.078 0 00-.022-.043zM10.312 5.662l2.027 2.026a.078.078 0 00.132-.067A2.505 2.505 0 0010.38 5.53a.078.078 0 00-.068.132z" fill="#B791F5"/><path d="M19.18 8.678a1.258 1.258 0 00-.004-1.358c-1.034-1.598-2.375-2.956-3.878-3.927-1.665-1.075-3.501-1.643-5.31-1.643a8.85 8.85 0 00-2.806.46.156.156 0 00-.06.26l1.845 1.845a.156.156 0 00.149.04 3.75 3.75 0 014.531 4.532.155.155 0 00.041.149l2.654 2.656a.156.156 0 00.211.01 13.432 13.432 0 002.627-3.024zM10 11.75a3.75 3.75 0 01-3.645-4.634.156.156 0 00-.04-.149L3.703 4.355a.156.156 0 00-.212-.009C2.54 5.16 1.656 6.148.85 7.304a1.247 1.247 0 00-.025 1.388c1.031 1.615 2.359 2.974 3.839 3.932 1.667 1.08 3.459 1.626 5.325 1.626a9.305 9.305 0 002.837-.451.156.156 0 00.063-.26l-1.854-1.854a.156.156 0 00-.15-.04c-.289.07-.586.105-.884.105z" fill="#B791F5"/></svg>
